packages/icons/raw/imported/TextCut.svg

<svg width="32" height="32" viewBox="0 0 32 32" fill="none" xmlns="http://www.w3.org/2000/svg">
<path d="M17.7731 21.3879C17.9236 21.6194 18.2333 21.6851 18.4648 21.5346C18.6963 21.3841 18.762 21.0744 18.6115 20.8429L17.7731 21.3879ZM9.11154 6.22751C8.96105 5.99598 8.65136 5.93028 8.41983 6.08078C8.1883 6.23127 8.1226 6.54096 8.2731 6.77249L9.11154 6.22751ZM13.3885 20.8429C13.238 21.0744 13.3037 21.3841 13.5352 21.5346C13.7667 21.6851 14.0764 21.6194 14.2269 21.3879L13.3885 20.8429ZM23.7269 6.77249C23.8774 6.54096 23.8117 6.23127 23.5802 6.08078C23.3486 5.93028 23.039 5.99598 22.8885 6.22751L23.7269 6.77249ZM25 21.8461C25 23.588 23.588 25 21.8462 25V26C24.1403 26 26 24.1402 26 21.8461H25ZM21.8462 25C20.1043 25 18.6923 23.588 18.6923 21.8461H17.6923C17.6923 24.1402 19.5521 26 21.8462 26V25ZM18.6923 21.8461C18.6923 20.1043 20.1043 18.6923 21.8462 18.6923V17.6923C19.5521 17.6923 17.6923 19.552 17.6923 21.8461H18.6923ZM21.8462 18.6923C23.588 18.6923 25 20.1043 25 21.8461H26C26 19.552 24.1403 17.6923 21.8462 17.6923V18.6923ZM13.3077 21.8461C13.3077 23.588 11.8957 25 10.1538 25V26C12.448 26 14.3077 24.1402 14.3077 21.8461H13.3077ZM10.1538 25C8.41203 25 7 23.588 7 21.8461H6C6 24.1402 7.85974 26 10.1538 26V25ZM7 21.8461C7 20.1043 8.41203 18.6923 10.1538 18.6923V17.6923C7.85974 17.6923 6 19.552 6 21.8461H7ZM10.1538 18.6923C11.8957 18.6923 13.3077 20.1043 13.3077 21.8461H14.3077C14.3077 19.552 12.448 17.6923 10.1538 17.6923V18.6923ZM18.6115 20.8429L9.11154 6.22751L8.2731 6.77249L17.7731 21.3879L18.6115 20.8429ZM14.2269 21.3879L23.7269 6.77249L22.8885 6.22751L13.3885 20.8429L14.2269 21.3879Z" fill="black"/>
</svg>

<svg width="32" height="32" fill="none" xmlns="http://www.w3.org/2000/svg"><path d="M17.773 21.388a.5.5 0 0 0 .838-.545l-.838.545ZM9.112 6.228a.5.5 0 1 0-.839.544l.839-.544Zm4.277 14.615a.5.5 0 0 0 .838.545l-.838-.545Zm10.338-14.07a.5.5 0 0 0-.838-.545l.838.544ZM25 21.845A3.154 3.154 0 0 1 21.846 25v1A4.154 4.154 0 0 0 26 21.846h-1ZM21.846 25a3.154 3.154 0 0 1-3.154-3.154h-1A4.154 4.154 0 0 0 21.846 26v-1Zm-3.154-3.154a3.154 3.154 0 0 1 3.154-3.154v-1a4.154 4.154 0 0 0-4.154 4.154h1Zm3.154-3.154A3.154 3.154 0 0 1 25 21.846h1a4.154 4.154 0 0 0-4.154-4.154v1Zm-8.538 3.154A3.154 3.154 0 0 1 10.154 25v1a4.154 4.154 0 0 0 4.154-4.154h-1ZM10.154 25A3.154 3.154 0 0 1 7 21.846H6A4.154 4.154 0 0 0 10.154 26v-1ZM7 21.846a3.154 3.154 0 0 1 3.154-3.154v-1A4.154 4.154 0 0 0 6 21.846h1Zm3.154-3.154a3.154 3.154 0 0 1 3.154 3.154h1a4.154 4.154 0 0 0-4.154-4.154v1Zm8.457 2.15-9.5-14.614-.838.544 9.5 14.616.838-.545Zm-4.384.546 9.5-14.616-.838-.544-9.5 14.615.838.545Z" fill="#000"/></svg>
